images/cart.svg

<svg width="24" height="24" viewBox="0 0 24 24" fill="none" xmlns="http://www.w3.org/2000/svg">
<path d="M12 12.5C13.9295 12.5 15.5 10.93 15.5 9V6.5H14.5V9C14.5 10.3785 13.3785 11.5 12 11.5C10.6215 11.5 9.5 10.3785 9.5 9V6.5H8.5V9C8.5 10.93 10.0705 12.5 12 12.5Z" fill="black"/>
<path d="M2 20C2 21.1 2.9 22 4 22H20C21.1 22 22 21.1 22 20V2H2V20ZM3 3H21V20C21 20.5515 20.5515 21 20 21H4C3.4485 21 3 20.5515 3 20V3Z" fill="black"/>
</svg>

<svg width="24" height="24" fill="none" xmlns="http://www.w3.org/2000/svg"><path d="M12 12.5c1.93 0 3.5-1.57 3.5-3.5V6.5h-1V9c0 1.379-1.121 2.5-2.5 2.5A2.503 2.503 0 019.5 9V6.5h-1V9c0 1.93 1.57 3.5 3.5 3.5z" fill="#000"/><path d="M2 20c0 1.1.9 2 2 2h16c1.1 0 2-.9 2-2V2H2v18zM3 3h18v17a1 1 0 01-1 1H4c-.551 0-1-.448-1-1V3z" fill="#000"/></svg>
